icons/arrows-up-down.svg

<svg xmlns="http://www.w3.org/2000/svg" width="24" height="24" viewBox="0 0 24 24">
  <path d="M18,3 C18.5522847,3 19,3.44771525 19,4 L19,4 L19,17.585 L21.2928932,15.2928932 L21.3871006,15.2097046 C21.7793918,14.9046797 22.3466228,14.9324093 22.7071068,15.2928932 C23.0976311,15.6834175 23.0976311,16.3165825 22.7071068,16.7071068 L22.7071068,16.7071068 L18.7071068,20.7071068 L18.625449,20.7803112 C18.6232039,20.7821131 18.6209509,20.7839054 18.6128994,20.7902954 L18.6128994,20.7902954 L18.588404,20.808746 L18.5360882,20.844312 C18.5309769,20.8475642 18.525834,20.8507712 18.5207088,20.8540045 C18.5086131,20.8613931 18.4963944,20.8685012 18.484277,20.8751242 C18.4642939,20.8862061 18.4438914,20.8966234 18.4232215,20.9063266 L18.4232215,20.9063266 L18.3710585,20.928896 C18.3515792,20.9366843 18.3317977,20.9438775 18.3121425,20.9502619 C18.3053947,20.9524725 18.298628,20.9546094 18.2918437,20.9566726 L18.2918437,20.9566726 L18.2610035,20.9655125 L18.2292908,20.9735893 C18.2204944,20.975653 18.2116533,20.9776005 18.202746,20.9793458 C18.1830736,20.9833994 18.1633028,20.9868563 18.1434626,20.9897165 L18.1434626,20.9897165 L18.1166211,20.9932723 L18.0942807,20.9955727 C18.0825448,20.9966776 18.070793,20.9975756 18.0590314,20.9982669 L18.0590314,20.9982669 L18.0193545,20.9998139 L17.980824,20.9998198 L17.9409686,20.9982669 C17.929207,20.9975756 17.9174552,20.9966776 17.9057193,20.9955727 L17.9057193,20.9955727 L17.8833789,20.9932723 C17.8742379,20.9922106 17.8651345,20.9910256 17.8565374,20.9897165 C17.8366972,20.9868563 17.8169264,20.9833994 17.797254,20.9793458 L17.797254,20.9793458 L17.7707092,20.9735893 C17.760142,20.9711102 17.7496394,20.9684635 17.7392043,20.9656522 L17.7392043,20.9656522 L17.7081563,20.9566726 L17.7081563,20.9566726 L17.6882636,20.9504533 L17.6882636,20.9504533 L17.628664,20.9287745 L17.628664,20.9287745 L17.5769009,20.9063462 C17.5561086,20.8966234 17.5357061,20.8862061 17.5159379,20.8753288 L17.5159379,20.8753288 L17.4793398,20.8539326 C17.4561921,20.8397887 17.4336642,20.8247301 17.411596,20.808746 L17.411596,20.808746 L17.379,20.7831802 C17.3801796,20.7847968 17.3790511,20.7839031 17.3779246,20.7830069 L17.374551,20.7803112 L17.364,20.7711802 L17.3507296,20.7606236 L17.3507296,20.7606236 L17.2928932,20.7071068 L13.2928932,16.7071068 L13.2097046,16.6128994 C12.9046797,16.2206082 12.9324093,15.6533772 13.2928932,15.2928932 C13.6834175,14.9023689 14.3165825,14.9023689 14.7071068,15.2928932 L14.7071068,15.2928932 L17,17.586 L17,4 L17.0067277,3.88337887 C17.0644928,3.38604019 17.4871642,3 18,3 Z M5.375,3.21918018 L5.363,3.22918018 L5.37455101,3.21968877 C5.3767961,3.21788692 5.37904914,3.21609456 5.38131006,3.21431175 L5.379,3.21618018 L5.41159595,3.19125405 L5.41159595,3.19125405 C5.43366416,3.17526991 5.45619206,3.16021129 5.47933981,3.14606743 C5.49138689,3.13860692 5.50360556,3.13149883 5.5159379,3.12467117 C5.53570605,3.11379392 5.5561086,3.10337664 5.57690085,3.09365378 C5.5939015,3.08567905 5.61120435,3.07819642 5.62866398,3.07122549 C5.6484208,3.06331574 5.66820232,3.05612249 5.68826359,3.04954668 L5.70815633,3.0433274 L5.70815633,3.0433274 L5.73920434,3.03434781 C5.74963942,3.03153649 5.76014201,3.0288898 5.77070917,3.02641071 L5.797254,3.02065418 C5.81692636,3.01660063 5.83669715,3.01314373 5.85653741,3.01028349 C5.86513445,3.00897443 5.87423786,3.00778945 5.88337887,3.00672773 L5.90571929,3.00442725 C5.91745524,3.00332241 5.92920699,3.00242436 5.94096861,3.0017331 L5.98082404,3.00018018 L6.0193545,3.00018615 L6.05903139,3.0017331 C6.07079301,3.00242436 6.08254476,3.00332241 6.09428071,3.00442725 L6.11662113,3.00672773 L6.14346259,3.01028349 C6.16330285,3.01314373 6.18307364,3.01660063 6.202746,3.02065418 C6.21165326,3.02239951 6.22049441,3.02434704 6.22929083,3.02641071 L6.26100354,3.0344875 L6.29184367,3.0433274 C6.29862799,3.04539061 6.30539469,3.0475275 6.31214252,3.04973809 C6.33179768,3.05612249 6.3515792,3.06331574 6.37105852,3.07110396 C6.38879565,3.07819642 6.4060985,3.08567905 6.42322155,3.09367336 C6.4438914,3.10337664 6.46429395,3.11379392 6.48427695,3.12487577 C6.49639444,3.13149883 6.50861311,3.13860692 6.52070875,3.14599545 L6.53608818,3.15568797 L6.53608818,3.15568797 L6.58840405,3.19125405 L6.61289944,3.20970461 L6.61289944,3.20970461 C6.62095086,3.21609456 6.6232039,3.21788692 6.62544899,3.21968877 L6.70710678,3.29289322 L10.7071068,7.29289322 C11.0976311,7.68341751 11.0976311,8.31658249 10.7071068,8.70710678 C10.3466228,9.06759074 9.77939176,9.09532028 9.38710056,8.79029539 L9.29289322,8.70710678 L7,6.415 L7,20 C7,20.5522847 6.55228475,21 6,21 C5.48716416,21 5.06449284,20.6139598 5.00672773,20.1166211 L5,20 L5,6.414 L2.70710678,8.70710678 C2.31658249,9.09763107 1.68341751,9.09763107 1.29289322,8.70710678 C0.932409257,8.34662282 0.904679722,7.77939176 1.20970461,7.38710056 L1.29289322,7.29289322 L5.29289322,3.29289322 L5.35072955,3.23937638 L5.35072955,3.23937638 L5.363,3.22918018 L5.352,3.23918018 L5.375,3.21918018 Z"/>
</svg>

<svg xmlns="http://www.w3.org/2000/svg" viewBox="0 0 24 24">
  <path d="M18 3a1 1 0 0 1 1 1v13.59l2.3-2.3.09-.08a1 1 0 0 1 1.32 1.5l-4 4-.08.07-.02.01-.02.02-.05.03-.02.01a.88.88 0 0 1-.1.06l-.05.02a.95.95 0 0 1-.08.03h-.03l-.03.01a.73.73 0 0 1-.09.02h-.05a1 1 0 0 1-.03 0l-.04.01h-.08a1 1 0 0 1-.03 0h-.03a.77.77 0 0 1-.08-.02h-.03a1 1 0 0 1-.03-.01l-.03-.01-.02-.01-.06-.02-.05-.02a1.04 1.04 0 0 1-.06-.03l-.04-.03a1.04 1.04 0 0 1-.07-.04l-.03-.03h-.02v-.02l-.07-.05-4-4-.08-.1a1 1 0 0 1 1.5-1.32L17 17.6V3.88A1 1 0 0 1 18 3zm-12.63.22h.01l.03-.03a1.04 1.04 0 0 1 .28-.14h.02l.03-.02a1 1 0 0 1 .03 0h.03A1 1 0 0 1 5.88 3h.03a1 1 0 0 1 .03 0h.12a1 1 0 0 1 .03 0h.03l.02.01a1 1 0 0 1 .09.02h.03l.03.01a1 1 0 0 1 .23.1l.02.02.05.03.02.02.02.01.08.07 4 4a1 1 0 0 1-1.32 1.5l-.1-.08L7 6.4V20a1 1 0 0 1-2 .12V6.4L2.7 8.7a1 1 0 0 1-1.49-1.32l.08-.1 4-4 .06-.05.01-.01.01-.01z"/>
</svg>
